static/assets/images/logos/monochrome/experteer.svg

<svg height="88" width="151" xmlns="http://www.w3.org/2000/svg"><g fill="none"><path d="M125.642 37.942c-1.88 1.31-2.372 2.21-2.453 5.567 0 .491-.082 2.62-.082 3.848v4.175c0 .9.9 1.146 1.636 1.146h.736c.163 0 .245.164.245.246v.41c0 .163-.082.245-.245.245h-7.526c-.163 0-.245-.082-.245-.246v-.409c0-.164.082-.246.245-.246h.246c.818-.082 2.045-.163 2.045-1.146v-7.286c0-2.293-.164-6.632 5.398-6.304zm-17.75 6.385v.082h5.726V44c0-2.456-.49-5.076-3.517-5.076-2.945 0-3.6 3.03-3.6 5.403v1.474c0 3.193.164 7.123 4.418 7.123 2.78 0 4.58-1.392 4.826-4.175 0 0 0-.164.163-.164h.655c.327 0 .245.327.245.327-.082.492-.163 1.065-.327 1.556-1.063 3.11-3.68 3.52-6.217 3.52-5.071 0-6.872-3.848-6.872-8.432 0-4.34 2.7-7.533 7.2-7.533 4.417 0 6.543 2.784 6.543 6.878 0 .49-.081.655-.49.655h-8.753c-.163 0-.245-.082-.245-.246v-.737c0-.164.082-.246.245-.246zm-16.032 0v.082h5.807V44c0-2.456-.49-5.076-3.517-5.076-2.945 0-3.6 3.03-3.6 5.403v1.474c0 3.193.165 7.123 4.418 7.123 2.863 0 4.58-1.392 4.826-4.175 0 0 0-.164.164-.164h.654c.327 0 .246.327.246.327-.164.492-.246 1.065-.41 1.556-1.063 3.11-3.68 3.52-6.216 3.52-5.072 0-6.871-3.848-6.871-8.432 0-4.34 2.7-7.533 7.198-7.533 4.417 0 6.544 2.784 6.544 6.878 0 .49-.082.655-.49.655H91.86c-.164 0-.246-.082-.246-.246v-.737c0-.164.164-.246.246-.246zm-4.99 7.615c.082.081 0 .163.164.163-.982 1.392-2.454 1.801-3.927 1.801-3.272 0-3.68-1.637-3.68-4.42V36.221c0-.49.408-.9.9-.9h1.062c.491 0 .9.41.9.9v2.05h3.436c.163 0 .245.081.245.245v.655c0 .163-.082.245-.245.245h-3.436v10.07c0 1.392.082 3.193 1.882 3.193.736 0 1.636-.655 2.126-1.228 0 0 .082-.082.164 0 0 .082.327.41.409.492zm-13.579-14c2.7.081 3.927 1.31 3.927 3.356 0 1.228-.327 1.392-1.473 1.392-1.308 0-1.39-.327-1.472-1.228 0-.737 0-2.374-1.39-2.374-1.555 0-2.373 1.228-2.373 4.42v8.025c0 .9.9 1.146 1.636 1.146h.736c.164 0 .246.164.246.246v.41c0 .163-.082.245-.246.245h-7.607c-.163 0-.245-.082-.245-.246v-.409c0-.164.082-.246.245-.246h.246c.818-.082 2.045-.163 2.045-1.146v-7.286c0-2.702.081-6.468 5.725-6.304zm-18.568 6.385v.082h5.89V44c0-2.456-.491-5.076-3.518-5.076-2.944 0-3.599 3.03-3.599 5.403v1.474c0 3.193.246 7.123 4.417 7.123 2.781 0 4.581-1.392 4.826-4.175 0 0 .082-.164.246-.164h.572c.246 0 .164.327.164.327-.082.492-.164 1.065-.327 1.556-1.064 3.11-3.681 3.52-6.217 3.52-5.071 0-6.87-3.848-6.87-8.432 0-4.34 2.617-7.533 7.116-7.533 4.417 0 6.543 2.784 6.543 6.878 0 .49-.081.655-.49.655h-8.753c-.163 0-.245-.082-.245-.246v-.737c0-.164.082-.246.245-.246zm-17.177 8.024l.572-.573c.082-.082.164-.082.245 0l.164.164c.49.49 1.309.736 2.209.736 3.844 0 4.008-4.093 4.008-7.04 0-2.866-.164-6.796-3.927-6.796-2.863 0-3.926 2.21-3.926 4.75v12.361c0 .983.982 1.146 1.8 1.146h.572c.164 0 .246.082.246.246v.41c0 .163-.164.245-.246.245h-7.525c-.164 0-.246-.082-.246-.246v-.409c0-.164.082-.246.246-.246h.163c.818-.08 2.127 0 2.127-1.146V38.515a.89.89 0 0 1 .9-.737h.982c.49 0 .9.41.9.9v1.638h.163c.981-1.883 2.781-2.456 4.826-2.456 4.744 0 6.135 3.766 6.135 7.86 0 4.748-1.718 8.105-6.953 8.105-1.227 0-2.29-.328-3.19-1.065-.082 0-.082 0-.164-.082-.245-.163-.163-.245-.081-.327zm-6.054.327c.164 0 .246.082.164.328v.41c0 .163-.082.245-.245.245h-7.28c-.164 0-.246-.082-.246-.246v-.41c0-.163.164-.245.246-.245h1.063c.245 0 .49-.164.49-.41 0-.327-.245-.572-.408-.818l-2.863-4.42-2.945 4.42c-.245.41-.327.655-.327.82 0 .326.245.41.49.49h1.146c.163 0 .245.164.245.246v.41c0 .163-.163.245-.245.245H15.05c-.164 0-.245-.082-.245-.246v-.41c0-.163.081-.245.245-.245h.9c.981-.082 1.308-.41 1.963-1.31l3.763-5.567-3.518-5.73c-.49-.9-.818-1.065-1.636-1.065h-.981c-.164 0-.246-.082-.246-.246v-.41c0-.163.082-.245.246-.245h8.016c.164 0 .245.082.245.246v.41c0 .163-.081.245-.245.245h-.982c-.327 0-.736 0-.818.081-.245.082-.245.328-.245.41 0 .164.164.327.245.491l2.536 4.257 2.863-4.257c.082-.082.245-.327.245-.573 0-.328-.163-.49-.409-.49h-1.308c-.164 0-.246-.083-.246-.247v-.41c0-.163.082-.245.246-.245h5.48c.082 0 .164.082.164.246v.41c0 .163-.164.245-.246.245h-.409c-1.145.082-1.472.327-2.208 1.31l-3.436 5.076 3.763 5.65c.164.244.327.49.49.654.573.737 1.31.9 1.8.9zm-27.075-8.35v-.082h5.89v-.41c0-2.456-.491-5.076-3.518-5.076-2.944 0-3.599 3.03-3.599 5.404v1.473c0 3.193.164 7.123 4.417 7.123 2.781 0 4.581-1.392 4.826-4.175 0 0 0-.164.164-.164h.654c.328 0 .246.328.246.328-.164.573-.246 1.146-.41 1.637-1.063 3.111-3.68 3.52-6.216 3.52C1.8 53.906 0 50.058 0 45.474c0-4.34 2.618-7.532 7.116-7.45 4.418 0 6.544 2.783 6.544 6.877 0 .49-.081.655-.49.655H4.417c-.163 0-.245-.082-.245-.246v-.737c0-.164.082-.246.245-.246z" fill="#000000"/><path d="M144.702 36.795h3.926v-.245c0-1.474-.327-3.193-2.372-3.193-1.963 0-2.454 1.965-2.454 3.438v.901c0 2.047.163 4.585 3.026 4.585 1.882 0 3.109-.9 3.272-2.702 0 0 .082-.082.164-.082h.409c.245 0 .163.164.163.164-.081.327-.081.655-.245.982-.736 2.047-2.536 2.293-4.254 2.293-3.517 0-4.744-2.456-4.744-5.404 0-2.783 1.8-4.83 4.908-4.83 3.027 0 4.499 1.883 4.499 4.42 0 .246-.082.41-.327.41h-5.971a.176.176 0 0 1-.164-.164v-.408c0-.082.082-.164.164-.164zm-7.608 4.75l.164.163c.163.163.163.163-.246.49-.654.492-1.472.738-2.372.738-2.944 0-4.171-2.293-4.171-4.913 0-2.7 1.063-5.24 4.171-5.24 1.227 0 2.454.328 3.19 1.392v-3.602a.56.56 0 0 1 .573-.573h.736a.56.56 0 0 1 .573.573v10.89c0 .736 1.227.736 1.636.736.082 0 .163.082.163.164v.245a.176.176 0 0 1-.163.164h-3.354a.176.176 0 0 1-.164-.164v-5.403c0-1.8-.572-3.766-2.78-3.766-2.455 0-2.536 2.865-2.536 4.666 0 1.638.409 4.176 2.535 4.176.655 0 1.145-.246 1.554-.492.246-.245.41-.327.491-.245zm-9.488-3.276c.981.164 1.472 1.556 1.472 3.111 0 1.228-.327 1.392-1.472 1.392-1.064 0-1.39-.164-1.39-1.392 0-1.555.326-2.947 1.39-3.11z" fill="#000000"/></g></svg>

<?xml version="1.0" encoding="UTF-8" standalone="no"?>
<!DOCTYPE svg PUBLIC "-//W3C//DTD SVG 1.1//EN" "http://www.w3.org/Graphics/SVG/1.1/DTD/svg11.dtd">
<svg viewBox="0 0 151 88" version="1.1" xmlns="http://www.w3.org/2000/svg" xmlns:xlink="http://www.w3.org/1999/xlink" xml:space="preserve" xmlns:serif="http://www.serif.com/" style="fill-rule:evenodd;clip-rule:evenodd;stroke-linejoin:round;stroke-miterlimit:2;">
    <g>
        <path d="M125.642,37.942C123.762,39.252 123.27,40.152 123.189,43.509C123.189,44 123.107,46.129 123.107,47.357L123.107,51.532C123.107,52.432 124.007,52.678 124.743,52.678L125.479,52.678C125.642,52.678 125.724,52.842 125.724,52.924L125.724,53.334C125.724,53.497 125.642,53.579 125.479,53.579L117.953,53.579C117.79,53.579 117.708,53.497 117.708,53.333L117.708,52.924C117.708,52.76 117.79,52.678 117.953,52.678L118.199,52.678C119.017,52.596 120.244,52.515 120.244,51.532L120.244,44.246C120.244,41.953 120.08,37.614 125.642,37.942ZM107.892,44.327L107.892,44.409L113.618,44.409L113.618,44C113.618,41.544 113.128,38.924 110.101,38.924C107.156,38.924 106.501,41.954 106.501,44.327L106.501,45.801C106.501,48.994 106.665,52.924 110.919,52.924C113.699,52.924 115.499,51.532 115.745,48.749C115.745,48.749 115.745,48.585 115.908,48.585L116.563,48.585C116.89,48.585 116.808,48.912 116.808,48.912C116.726,49.404 116.645,49.977 116.481,50.468C115.418,53.578 112.801,53.988 110.264,53.988C105.193,53.988 103.392,50.14 103.392,45.556C103.392,41.216 106.092,38.023 110.592,38.023C115.009,38.023 117.135,40.807 117.135,44.901C117.135,45.391 117.054,45.556 116.645,45.556L107.892,45.556C107.729,45.556 107.647,45.474 107.647,45.31L107.647,44.573C107.647,44.409 107.729,44.327 107.892,44.327ZM91.86,44.327L91.86,44.409L97.667,44.409L97.667,44C97.667,41.544 97.177,38.924 94.15,38.924C91.205,38.924 90.55,41.954 90.55,44.327L90.55,45.801C90.55,48.994 90.715,52.924 94.968,52.924C97.831,52.924 99.548,51.532 99.794,48.749C99.794,48.749 99.794,48.585 99.958,48.585L100.612,48.585C100.939,48.585 100.858,48.912 100.858,48.912C100.694,49.404 100.612,49.977 100.448,50.468C99.385,53.578 96.768,53.988 94.232,53.988C89.16,53.988 87.361,50.14 87.361,45.556C87.361,41.216 90.061,38.023 94.559,38.023C98.976,38.023 101.103,40.807 101.103,44.901C101.103,45.391 101.021,45.556 100.613,45.556L91.86,45.556C91.696,45.556 91.614,45.474 91.614,45.31L91.614,44.573C91.614,44.409 91.778,44.327 91.86,44.327ZM86.87,51.942C86.952,52.023 86.87,52.105 87.034,52.105C86.052,53.497 84.58,53.906 83.107,53.906C79.835,53.906 79.427,52.269 79.427,49.486L79.427,36.221C79.427,35.731 79.835,35.321 80.327,35.321L81.389,35.321C81.88,35.321 82.289,35.731 82.289,36.221L82.289,38.271L85.725,38.271C85.888,38.271 85.97,38.352 85.97,38.516L85.97,39.171C85.97,39.334 85.888,39.416 85.725,39.416L82.289,39.416L82.289,49.486C82.289,50.878 82.371,52.679 84.171,52.679C84.907,52.679 85.807,52.024 86.297,51.451C86.297,51.451 86.379,51.369 86.461,51.451C86.461,51.533 86.788,51.861 86.87,51.943L86.87,51.942ZM73.291,37.942C75.991,38.023 77.218,39.252 77.218,41.298C77.218,42.526 76.891,42.69 75.745,42.69C74.437,42.69 74.355,42.363 74.273,41.462C74.273,40.725 74.273,39.088 72.883,39.088C71.328,39.088 70.51,40.316 70.51,43.508L70.51,51.533C70.51,52.433 71.41,52.679 72.146,52.679L72.882,52.679C73.046,52.679 73.128,52.843 73.128,52.925L73.128,53.335C73.128,53.498 73.046,53.58 72.882,53.58L65.275,53.58C65.112,53.58 65.03,53.498 65.03,53.334L65.03,52.925C65.03,52.761 65.112,52.679 65.275,52.679L65.521,52.679C66.339,52.597 67.566,52.516 67.566,51.533L67.566,44.247C67.566,41.545 67.647,37.779 73.291,37.943L73.291,37.942ZM54.723,44.327L54.723,44.409L60.613,44.409L60.613,44C60.613,41.544 60.122,38.924 57.095,38.924C54.151,38.924 53.496,41.954 53.496,44.327L53.496,45.801C53.496,48.994 53.742,52.924 57.913,52.924C60.694,52.924 62.494,51.532 62.739,48.749C62.739,48.749 62.821,48.585 62.985,48.585L63.557,48.585C63.803,48.585 63.721,48.912 63.721,48.912C63.639,49.404 63.557,49.977 63.394,50.468C62.33,53.578 59.713,53.988 57.177,53.988C52.106,53.988 50.307,50.14 50.307,45.556C50.307,41.216 52.924,38.023 57.423,38.023C61.84,38.023 63.966,40.807 63.966,44.901C63.966,45.391 63.885,45.556 63.476,45.556L54.723,45.556C54.56,45.556 54.478,45.474 54.478,45.31L54.478,44.573C54.478,44.409 54.56,44.327 54.723,44.327ZM37.546,52.351L38.118,51.778C38.2,51.696 38.282,51.696 38.363,51.778L38.527,51.942C39.017,52.432 39.836,52.678 40.736,52.678C44.58,52.678 44.744,48.585 44.744,45.638C44.744,42.772 44.58,38.842 40.817,38.842C37.954,38.842 36.891,41.052 36.891,43.592L36.891,55.953C36.891,56.936 37.873,57.099 38.691,57.099L39.263,57.099C39.427,57.099 39.509,57.181 39.509,57.345L39.509,57.755C39.509,57.918 39.345,58 39.263,58L31.738,58C31.574,58 31.492,57.918 31.492,57.754L31.492,57.345C31.492,57.181 31.574,57.099 31.738,57.099L31.901,57.099C32.719,57.019 34.028,57.099 34.028,55.953L34.028,38.515C34.103,38.082 34.489,37.767 34.928,37.778L35.91,37.778C36.4,37.778 36.81,38.188 36.81,38.678L36.81,40.316L36.973,40.316C37.954,38.433 39.754,37.86 41.799,37.86C46.543,37.86 47.934,41.626 47.934,45.72C47.934,50.468 46.216,53.825 40.981,53.825C39.754,53.825 38.691,53.497 37.791,52.76C37.709,52.76 37.709,52.76 37.627,52.678C37.382,52.515 37.464,52.433 37.546,52.351ZM31.492,52.678C31.656,52.678 31.738,52.76 31.656,53.006L31.656,53.416C31.656,53.579 31.574,53.661 31.411,53.661L24.131,53.661C23.967,53.661 23.885,53.579 23.885,53.415L23.885,53.005C23.885,52.842 24.049,52.76 24.131,52.76L25.194,52.76C25.439,52.76 25.684,52.596 25.684,52.35C25.684,52.023 25.439,51.778 25.276,51.532L22.413,47.112L19.468,51.532C19.223,51.942 19.141,52.187 19.141,52.352C19.141,52.678 19.386,52.762 19.631,52.842L20.777,52.842C20.94,52.842 21.022,53.006 21.022,53.088L21.022,53.498C21.022,53.661 20.859,53.743 20.777,53.743L15.05,53.743C14.886,53.743 14.805,53.661 14.805,53.497L14.805,53.087C14.805,52.924 14.886,52.842 15.05,52.842L15.95,52.842C16.931,52.76 17.258,52.432 17.913,51.532L21.676,45.965L18.158,40.235C17.668,39.335 17.34,39.17 16.522,39.17L15.541,39.17C15.377,39.17 15.295,39.088 15.295,38.924L15.295,38.514C15.295,38.351 15.377,38.269 15.541,38.269L23.557,38.269C23.721,38.269 23.802,38.351 23.802,38.515L23.802,38.925C23.802,39.088 23.721,39.17 23.557,39.17L22.575,39.17C22.248,39.17 21.839,39.17 21.757,39.251C21.512,39.333 21.512,39.579 21.512,39.661C21.512,39.825 21.676,39.988 21.757,40.152L24.293,44.409L27.156,40.152C27.238,40.07 27.401,39.825 27.401,39.579C27.401,39.251 27.238,39.089 26.992,39.089L25.684,39.089C25.52,39.089 25.438,39.006 25.438,38.842L25.438,38.432C25.438,38.269 25.52,38.187 25.684,38.187L31.164,38.187C31.246,38.187 31.328,38.269 31.328,38.433L31.328,38.843C31.328,39.006 31.164,39.088 31.082,39.088L30.673,39.088C29.528,39.17 29.201,39.415 28.465,40.398L25.029,45.474L28.792,51.124C28.956,51.368 29.119,51.614 29.282,51.778C29.855,52.515 30.592,52.678 31.082,52.678L31.492,52.678ZM4.417,44.328L4.417,44.246L10.307,44.246L10.307,43.836C10.307,41.38 9.816,38.76 6.789,38.76C3.845,38.76 3.19,41.79 3.19,44.164L3.19,45.637C3.19,48.83 3.354,52.76 7.607,52.76C10.388,52.76 12.188,51.368 12.433,48.585C12.433,48.585 12.433,48.421 12.597,48.421L13.251,48.421C13.579,48.421 13.497,48.749 13.497,48.749C13.333,49.322 13.251,49.895 13.087,50.386C12.024,53.497 9.407,53.906 6.871,53.906C1.8,53.906 0,50.058 0,45.474C0,41.134 2.618,37.942 7.116,38.024C11.534,38.024 13.66,40.807 13.66,44.901C13.66,45.391 13.579,45.556 13.17,45.556L4.417,45.556C4.254,45.556 4.172,45.474 4.172,45.31L4.172,44.573C4.172,44.409 4.254,44.327 4.417,44.327L4.417,44.328Z" style="fill-rule:nonzero;"/>
        <path d="M144.702,36.795L148.628,36.795L148.628,36.55C148.628,35.076 148.301,33.357 146.256,33.357C144.293,33.357 143.802,35.322 143.802,36.795L143.802,37.696C143.802,39.743 143.965,42.281 146.828,42.281C148.71,42.281 149.937,41.381 150.1,39.579C150.1,39.579 150.182,39.497 150.264,39.497L150.673,39.497C150.918,39.497 150.836,39.661 150.836,39.661C150.755,39.988 150.755,40.316 150.591,40.643C149.855,42.69 148.055,42.936 146.337,42.936C142.82,42.936 141.593,40.48 141.593,37.532C141.593,34.749 143.393,32.702 146.501,32.702C149.528,32.702 151,34.585 151,37.122C151,37.368 150.918,37.532 150.673,37.532L144.702,37.532C144.614,37.526 144.544,37.456 144.538,37.368L144.538,36.96C144.538,36.878 144.62,36.796 144.702,36.796L144.702,36.795ZM137.094,41.545L137.258,41.708C137.421,41.871 137.421,41.871 137.012,42.198C136.358,42.69 135.54,42.936 134.64,42.936C131.696,42.936 130.469,40.643 130.469,38.023C130.469,35.323 131.532,32.783 134.64,32.783C135.867,32.783 137.094,33.111 137.83,34.175L137.83,30.573C137.83,30.569 137.83,30.564 137.83,30.56C137.83,30.253 138.083,30 138.39,30C138.394,30 138.399,30 138.403,30L139.139,30C139.143,30 139.148,30 139.152,30C139.459,30 139.712,30.253 139.712,30.56C139.712,30.564 139.712,30.569 139.712,30.573L139.712,41.463C139.712,42.199 140.939,42.199 141.348,42.199C141.43,42.199 141.511,42.281 141.511,42.363L141.511,42.608C141.505,42.695 141.435,42.766 141.348,42.772L137.994,42.772C137.906,42.766 137.836,42.696 137.83,42.608L137.83,37.205C137.83,35.405 137.258,33.439 135.05,33.439C132.595,33.439 132.514,36.304 132.514,38.105C132.514,39.743 132.923,42.281 135.049,42.281C135.704,42.281 136.194,42.035 136.603,41.789C136.849,41.544 137.013,41.462 137.094,41.544L137.094,41.545ZM127.606,38.269C128.587,38.433 129.078,39.825 129.078,41.38C129.078,42.608 128.751,42.772 127.606,42.772C126.542,42.772 126.216,42.608 126.216,41.38C126.216,39.825 126.542,38.433 127.606,38.27L127.606,38.269Z" style="fill-rule:nonzero;"/>
    </g>
</svg>
